!!!COM: Bach, Johann Sebastian
!!!CDT: 1685///-1750///
!!!CNT@EN: German
!!!OTL: Sarabande from Cello Suite No. 1 in G Major, BWV 1007
!!!OPR: Cello Suite No. 1 in G Major, BWV 1007
!!!OMD: Sarabande
!!!OMV: 4
!!!ODT: 1720///
!!!SCT: BWV 1007
!!!SCA: Thematisch-systematisches Verzeichnis der musikalischen Werke Johann Sebastian Bach: Bach-Werke-Verzeichnis (Schmieder)
**kern
*Icello
*>[A,A,B,B]
*>norep[A,B]
*>A
*clefF4
*k[f#]
*M3/4
*MM92
=1-
*^
4r	(GGq/
*v	*v
4D\) 4B\
GGq/
*^
(4.c/	4E\
.	4r
8B/)	.
*v	*v
=2
(16F#\LL
16A\
16B\
16c\JJ)
(GGq/
4D\) 4B\
8A\L
&(8G\J&)
=3
(8d\L
8Fn\J)
([8.E/L
64E/LLL]
64D/
64C/
64BB/JJJJ
8C\L)
8E\J
=4
(16F#\LL
16c\
16B\
16G\JJ)
(DDq/ AAq/
(4F#\)
8E\L
8D\J)
=5
(16A\LL
16F#\
16D\
16C\JJ)
(8.BB/L
16GG/Jk)
(16BB\LL
16D\
16G\
16A\JJ)
=6
(16B\LL
16G\
16E\
16D\JJ)
8.C#/L
(32AA/LL
32BB/JJJ)
(16C#\LL
16D\
16E\
16F#\JJ)
=7
(16G\LL
16c#\
16d\
16c#\JJ
16d\LL)
(16A\
16G\
16F#\JJ)
(16E\LL
16G\
16F#\)
16D\JJ
=8
(16AA/LL
16D/
16E/
16C#/JJ)
4D\
4DD/
=9:|!|:
*>B
8DD\ 8AA\ 8F#\L
16E\L
16D\JJ
(DDq/ AAq/
4.F#\) 4.c\
16B\LL
&(16A\JJ&)
=10
16GG\ 16D\ (16B\LL
16F#\
16G\
16E\JJ)
(8.AA/ 8.D#/L
16E/Jk)
(16F#\LL
16G\
16A\
16B\JJ)
=11
(16D#\LL
16A\
16B\
16c\JJ)
8B\L
(16A\L
16G\JJ)
(16F#\LL
16E\
16A\
16F#\JJ)
=12
(16G\LL
16E\)
(16F#\
16D#\JJ)
4E\
4EE/
=13
8.BB\ (8.Dn\L
32E\LL
32Fn\JJJ)
(CCq/ GGq/
8.E\L)
16F#\Jk
(16G#\LL
16A\
16B\
16c\JJ)
=14
16GG#\LL
(16d\
16c\
16B\JJ)
AAq/ Eq/
(8.c\L
16B\Jk)
(16A\LL
16Gn\
16F#\
16E\JJ)
=15
*^
16r	[4D/
(16BB\LL	.
16C\	.
16AA\JJ	.
16BB\)	16D/LL]
8.r	(16E/
.	16F#/
.	16G/JJ)
(16A\LL	4r
16c\	.
16B\	.
16G\JJ)	.
*v	*v
=16
(16D\LL
16G\)
(16A\
16F#\JJ)
4G\
4GG/
==:|!
*-
!!!ENC: Craig Stuart Sapp
!!!END: 2004/12/01/
